raw/barometer_graph_icon1.svg

<?xml version="1.0" encoding="UTF-8" standalone="no"?>
<!-- Created with Inkscape (http://www.inkscape.org/) -->

<svg
   xmlns:dc="http://purl.org/dc/elements/1.1/"
   xmlns:cc="http://creativecommons.org/ns#"
   xmlns:rdf="http://www.w3.org/1999/02/22-rdf-syntax-ns#"
   xmlns:svg="http://www.w3.org/2000/svg"
   xmlns="http://www.w3.org/2000/svg"
   xmlns:xlink="http://www.w3.org/1999/xlink"
   xmlns:sodipodi="http://sodipodi.sourceforge.net/DTD/sodipodi-0.dtd"
   xmlns:inkscape="http://www.inkscape.org/namespaces/inkscape"
   sodipodi:docname="barometer_graph_icon1.svg"
   inkscape:version="0.91 r13725"
   version="1.1"
   id="svg2985"
   height="64px"
   width="64px"
   inkscape:export-filename="/home/brian/AndroidStudioProjects/BarometerGraph/app/src/main/res/drawable-mdpi/icon.png"
   inkscape:export-xdpi="67.290733"
   inkscape:export-ydpi="67.290733">
  <sodipodi:namedview
     inkscape:window-maximized="1"
     inkscape:window-y="20"
     inkscape:window-x="0"
     inkscape:window-height="1016"
     inkscape:window-width="1920"
     inkscape:grid-bbox="true"
     inkscape:document-units="px"
     showgrid="true"
     inkscape:current-layer="layer6"
     inkscape:cy="29.678138"
     inkscape:cx="20.738452"
     inkscape:zoom="11.313708"
     inkscape:pageshadow="2"
     inkscape:pageopacity="0.0"
     borderopacity="1.0"
     bordercolor="#666666"
     pagecolor="#ffffff"
     id="base" />
  <defs
     id="defs2987">
    <linearGradient
       inkscape:collect="always"
       id="linearGradient8210">
      <stop
         style="stop-color:#000000;stop-opacity:1;"
         offset="0"
         id="stop8212" />
      <stop
         style="stop-color:#000000;stop-opacity:0;"
         offset="1"
         id="stop8214" />
    </linearGradient>
    <clipPath
       clipPathUnits="userSpaceOnUse"
       id="clipPath6042">
      <rect
         ry="8.2558165"
         y="0.69445419"
         x="0.69445419"
         height="62.611092"
         width="62.611092"
         id="rect6044"
         style="fill:#8e24aa;fill-opacity:1;stroke:#b0b0b0;stroke-linecap:round;stroke-linejoin:miter;stroke-opacity:0;display:inline" />
    </clipPath>
    <linearGradient
       inkscape:collect="always"
       xlink:href="#linearGradient8210"
       id="linearGradient8216"
       x1="36.999355"
       y1="34.350468"
       x2="58.96035"
       y2="58.038544"
       gradientUnits="userSpaceOnUse"
       gradientTransform="matrix(1.1157697,-0.05212064,0.05212064,1.1157697,-6.1937168,-3.6239416)" />
  </defs>
  <metadata
     id="metadata2990">
    <rdf:RDF>
      <cc:Work
         rdf:about="">
        <dc:format>image/svg+xml</dc:format>
        <dc:type
           rdf:resource="http://purl.org/dc/dcmitype/StillImage" />
        <dc:title />
      </cc:Work>
    </rdf:RDF>
  </metadata>
  <g
     inkscape:groupmode="layer"
     id="layer5"
     inkscape:label="Layer 3"
     style="display:inline">
    <rect
       ry="8.3645697"
       y="0.28207022"
       x="0.28207022"
       height="63.43586"
       width="63.43586"
       id="rect3763"
       style="display:inline;fill:#33ad5c;fill-opacity:1;stroke:#b0b0b0;stroke-width:1.01317286;stroke-linecap:round;stroke-linejoin:miter;stroke-opacity:0" />
  </g>
  <g
     style="display:inline"
     inkscape:groupmode="layer"
     inkscape:label="Layer 1"
     id="layer1">
    <rect
       transform="matrix(0,1,-1,0,0,0)"
       style="opacity:1;fill:#ffffff;fill-opacity:1;stroke:#ffffff;stroke-width:0.9362886;stroke-linecap:square;stroke-linejoin:bevel;stroke-miterlimit:0;stroke-dasharray:none;stroke-opacity:1"
       id="rect5813"
       width="2.8411884"
       height="48.723686"
       x="53.481182"
       y="-55.16589"
       ry="0" />
    <rect
       ry="0"
       y="7.5986838"
       x="6.4432826"
       height="48.723686"
       width="2.8411884"
       id="rect8203"
       style="opacity:1;fill:#ffffff;fill-opacity:1;stroke:#ffffff;stroke-width:0.9362886;stroke-linecap:square;stroke-linejoin:bevel;stroke-miterlimit:0;stroke-dasharray:none;stroke-opacity:1" />
  </g>
  <g
     style="display:inline"
     inkscape:label="Layer 2"
     id="layer4"
     inkscape:groupmode="layer">
    <path
       style="color:#000000;font-style:normal;font-variant:normal;font-weight:normal;font-stretch:normal;font-size:medium;line-height:normal;font-family:sans-serif;text-indent:0;text-align:start;text-decoration:none;text-decoration-line:none;text-decoration-style:solid;text-decoration-color:#000000;letter-spacing:normal;word-spacing:normal;text-transform:none;direction:ltr;block-progression:tb;writing-mode:lr-tb;baseline-shift:baseline;text-anchor:start;white-space:normal;clip-rule:nonzero;display:inline;overflow:visible;visibility:visible;opacity:0.24599998;isolation:auto;mix-blend-mode:normal;color-interpolation:sRGB;color-interpolation-filters:linearRGB;solid-color:#000000;solid-opacity:1;fill:url(#linearGradient8216);fill-opacity:1;fill-rule:evenodd;stroke:none;stroke-width:1.99639177;stroke-linecap:butt;stroke-linejoin:round;stroke-miterlimit:4;stroke-dasharray:none;stroke-dashoffset:0;stroke-opacity:1;color-rendering:auto;image-rendering:auto;shape-rendering:auto;text-rendering:auto;enable-background:accumulate"
       d="m 53.131521,15.747564 -8.615602,13.553779 -3.854912,-1.409322 c -0.516958,-0.188044 -1.092186,0.03049 -1.356964,0.512679 l -4.051257,7.378219 -2.947359,-1.088626 c -0.398177,-0.146725 -0.846209,-0.05643 -1.154075,0.235615 l -4.721012,4.481035 -5.224965,-3.041171 c -0.45686,-0.265045 -1.037025,-0.172847 -1.389689,0.220344 l -5.971316,8.184703 22.72393,18.943666 18.785878,0 c 4.633972,0 8.364307,-3.730335 8.364307,-8.364307 l 0,-29.8183 z"
       id="path8205"
       inkscape:connector-curvature="0"
       sodipodi:nodetypes="ccccccccccccsscc" />
  </g>
  <g
     inkscape:groupmode="layer"
     id="layer6"
     inkscape:label="Layer 4"
     style="display:inline">
    <path
       style="color:#000000;font-style:normal;font-variant:normal;font-weight:normal;font-stretch:normal;font-size:medium;line-height:normal;font-family:sans-serif;text-indent:0;text-align:start;text-decoration:none;text-decoration-line:none;text-decoration-style:solid;text-decoration-color:#000000;letter-spacing:normal;word-spacing:normal;text-transform:none;direction:ltr;block-progression:tb;writing-mode:lr-tb;baseline-shift:baseline;text-anchor:start;white-space:normal;clip-rule:nonzero;display:inline;overflow:visible;visibility:visible;opacity:1;isolation:auto;mix-blend-mode:normal;color-interpolation:sRGB;color-interpolation-filters:linearRGB;solid-color:#000000;solid-opacity:1;fill:#ffffff;fill-opacity:1;fill-rule:evenodd;stroke:none;stroke-width:1.99600005;stroke-linecap:butt;stroke-linejoin:round;stroke-miterlimit:4;stroke-dasharray:none;stroke-dashoffset:0;stroke-opacity:1;color-rendering:auto;image-rendering:auto;shape-rendering:auto;text-rendering:auto;enable-background:accumulate"
       d="m 52.052576,15.527906 -7.535695,13.772648 -3.854983,-1.407686 c -0.51696,-0.188142 -1.093876,0.02892 -1.358591,0.511183 l -4.049506,7.378868 -2.949059,-1.089646 c -0.398171,-0.146778 -0.845143,-0.05478 -1.152983,0.237314 l -4.722212,4.479374 -5.22419,-3.040689 c -0.456844,-0.265133 -1.037044,-0.17329 -1.389664,0.219978 l -6.346661,7.060296 c 0.05342,1.523007 0.912839,1.388757 1.657397,1.490686 l 5.740355,-6.387695 5.163517,3.004212 c 0.428059,0.249977 0.969756,0.187297 1.329419,-0.153828 l 4.824617,-4.578068 3.198021,1.182847 c 0.517756,0.191022 1.097355,-0.0255 1.363048,-0.509206 l 4.051483,-7.383329 3.854984,1.407686 c 0.517614,0.189372 1.095923,-0.02792 1.360768,-0.511284 L 53.677753,16.9082 c -0.0018,-1.048508 -0.721409,-1.49588 -1.625177,-1.380294 z"
       id="path5809"
       inkscape:connector-curvature="0"
       sodipodi:nodetypes="ccccccccccccccccccccccc" />
  </g>
</svg>

<?xml version="1.0" encoding="UTF-8" standalone="no"?>
<!-- Created with Inkscape (http://www.inkscape.org/) -->

<svg
   xmlns:dc="http://purl.org/dc/elements/1.1/"
   xmlns:cc="http://creativecommons.org/ns#"
   xmlns:rdf="http://www.w3.org/1999/02/22-rdf-syntax-ns#"
   xmlns:svg="http://www.w3.org/2000/svg"
   xmlns="http://www.w3.org/2000/svg"
   xmlns:xlink="http://www.w3.org/1999/xlink"
   xmlns:sodipodi="http://sodipodi.sourceforge.net/DTD/sodipodi-0.dtd"
   xmlns:inkscape="http://www.inkscape.org/namespaces/inkscape"
   sodipodi:docname="barometer_graph_icon1.svg"
   inkscape:version="0.91 r13725"
   version="1.1"
   id="svg2985"
   height="64px"
   width="64px"
   inkscape:export-filename="/home/brian/AndroidStudioProjects/BarometerGraph/app/src/main/res/drawable-xxxhdpi/icon.png"
   inkscape:export-xdpi="271.40625"
   inkscape:export-ydpi="271.40625">
  <sodipodi:namedview
     inkscape:window-maximized="1"
     inkscape:window-y="20"
     inkscape:window-x="0"
     inkscape:window-height="1016"
     inkscape:window-width="1920"
     inkscape:grid-bbox="true"
     inkscape:document-units="px"
     showgrid="true"
     inkscape:current-layer="layer5"
     inkscape:cy="35.007984"
     inkscape:cx="-10.197445"
     inkscape:zoom="5.9350889"
     inkscape:pageshadow="2"
     inkscape:pageopacity="0.0"
     borderopacity="1.0"
     bordercolor="#666666"
     pagecolor="#ffffff"
     id="base" />
  <defs
     id="defs2987">
    <linearGradient
       inkscape:collect="always"
       id="linearGradient8210">
      <stop
         style="stop-color:#000000;stop-opacity:1;"
         offset="0"
         id="stop8212" />
      <stop
         style="stop-color:#000000;stop-opacity:0;"
         offset="1"
         id="stop8214" />
    </linearGradient>
    <clipPath
       clipPathUnits="userSpaceOnUse"
       id="clipPath6042">
      <rect
         ry="8.2558165"
         y="0.69445419"
         x="0.69445419"
         height="62.611092"
         width="62.611092"
         id="rect6044"
         style="fill:#8e24aa;fill-opacity:1;stroke:#b0b0b0;stroke-linecap:round;stroke-linejoin:miter;stroke-opacity:0;display:inline" />
    </clipPath>
    <linearGradient
       inkscape:collect="always"
       xlink:href="#linearGradient8210"
       id="linearGradient8216"
       x1="36.999355"
       y1="34.350468"
       x2="47.388481"
       y2="47.841015"
       gradientUnits="userSpaceOnUse"
       gradientTransform="matrix(1.1157697,-0.05212064,0.05212064,1.1157697,-6.1937168,-3.6239416)" />
  </defs>
  <metadata
     id="metadata2990">
    <rdf:RDF>
      <cc:Work
         rdf:about="">
        <dc:format>image/svg+xml</dc:format>
        <dc:type
           rdf:resource="http://purl.org/dc/dcmitype/StillImage" />
        <dc:title />
      </cc:Work>
    </rdf:RDF>
  </metadata>
  <g
     inkscape:groupmode="layer"
     id="layer5"
     inkscape:label="Layer 3"
     style="display:inline">
    <rect
       ry="8.3645697"
       y="0.28207022"
       x="0.28207022"
       height="63.43586"
       width="63.43586"
       id="rect3763"
       style="display:inline;fill:#33ad5c;fill-opacity:1;stroke:#b0b0b0;stroke-width:1.01317286;stroke-linecap:round;stroke-linejoin:miter;stroke-opacity:0" />
  </g>
  <g
     style="display:inline"
     inkscape:groupmode="layer"
     inkscape:label="Layer 1"
     id="layer1">
    <rect
       transform="matrix(0,1,-1,0,0,0)"
       style="opacity:1;fill:#ffffff;fill-opacity:1;stroke:#ffffff;stroke-width:0.9362886;stroke-linecap:square;stroke-linejoin:bevel;stroke-miterlimit:0;stroke-dasharray:none;stroke-opacity:1"
       id="rect5813"
       width="2.8411884"
       height="48.723686"
       x="53.481182"
       y="-55.16589"
       ry="0" />
    <rect
       ry="0"
       y="7.5986838"
       x="6.4432826"
       height="48.723686"
       width="2.8411884"
       id="rect8203"
       style="opacity:1;fill:#ffffff;fill-opacity:1;stroke:#ffffff;stroke-width:0.9362886;stroke-linecap:square;stroke-linejoin:bevel;stroke-miterlimit:0;stroke-dasharray:none;stroke-opacity:1" />
  </g>
  <g
     style="display:inline"
     inkscape:label="Layer 2"
     id="layer4"
     inkscape:groupmode="layer">
    <path
       style="color:#000000;font-style:normal;font-variant:normal;font-weight:normal;font-stretch:normal;font-size:medium;line-height:normal;font-family:sans-serif;text-indent:0;text-align:start;text-decoration:none;text-decoration-line:none;text-decoration-style:solid;text-decoration-color:#000000;letter-spacing:normal;word-spacing:normal;text-transform:none;direction:ltr;block-progression:tb;writing-mode:lr-tb;baseline-shift:baseline;text-anchor:start;white-space:normal;clip-rule:nonzero;display:inline;overflow:visible;visibility:visible;opacity:0.13800001;isolation:auto;mix-blend-mode:normal;color-interpolation:sRGB;color-interpolation-filters:linearRGB;solid-color:#000000;solid-opacity:1;fill:url(#linearGradient8216);fill-opacity:1;fill-rule:evenodd;stroke:none;stroke-width:1.99639177;stroke-linecap:butt;stroke-linejoin:round;stroke-miterlimit:4;stroke-dasharray:none;stroke-dashoffset:0;stroke-opacity:1;color-rendering:auto;image-rendering:auto;shape-rendering:auto;text-rendering:auto;enable-background:accumulate"
       d="M 53.130859 15.748047 L 44.515625 29.300781 L 40.660156 27.892578 C 40.143198 27.704534 39.569465 27.922108 39.304688 28.404297 L 35.251953 35.783203 L 32.304688 34.693359 C 31.90651 34.546634 31.458257 34.637642 31.150391 34.929688 L 26.429688 39.410156 L 21.205078 36.369141 C 20.748218 36.104096 20.16907 36.196653 19.816406 36.589844 L 13.84375 44.775391 L 32.869141 63.71875 L 55.353516 63.71875 C 59.406034 63.584982 62.771015 60.828346 63.548828 57.037109 C 63.604386 56.766307 63.64731 56.491729 63.675781 56.210938 C 63.704236 55.929062 63.71875 55.643139 63.71875 55.353516 L 63.71875 25.535156 L 53.130859 15.748047 z "
       id="path8205" />
  </g>
  <g
     inkscape:groupmode="layer"
     id="layer6"
     inkscape:label="Layer 4"
     style="display:inline">
    <path
       style="color:#000000;font-style:normal;font-variant:normal;font-weight:normal;font-stretch:normal;font-size:medium;line-height:normal;font-family:sans-serif;text-indent:0;text-align:start;text-decoration:none;text-decoration-line:none;text-decoration-style:solid;text-decoration-color:#000000;letter-spacing:normal;word-spacing:normal;text-transform:none;direction:ltr;block-progression:tb;writing-mode:lr-tb;baseline-shift:baseline;text-anchor:start;white-space:normal;clip-rule:nonzero;display:inline;overflow:visible;visibility:visible;opacity:1;isolation:auto;mix-blend-mode:normal;color-interpolation:sRGB;color-interpolation-filters:linearRGB;solid-color:#000000;solid-opacity:1;fill:#ffffff;fill-opacity:1;fill-rule:evenodd;stroke:none;stroke-width:1.99600005;stroke-linecap:butt;stroke-linejoin:round;stroke-miterlimit:4;stroke-dasharray:none;stroke-dashoffset:0;stroke-opacity:1;color-rendering:auto;image-rendering:auto;shape-rendering:auto;text-rendering:auto;enable-background:accumulate"
       d="m 52.052576,15.527906 -7.535695,13.772648 -3.854983,-1.407686 c -0.51696,-0.188142 -1.093876,0.02892 -1.358591,0.511183 l -4.049506,7.378868 -2.949059,-1.089646 c -0.398171,-0.146778 -0.845143,-0.05478 -1.152983,0.237314 l -4.722212,4.479374 -5.22419,-3.040689 c -0.456844,-0.265133 -1.037044,-0.17329 -1.389664,0.219978 l -6.346661,7.060296 c 0.05342,1.523007 0.912839,1.388757 1.657397,1.490686 l 5.740355,-6.387695 5.163517,3.004212 c 0.428059,0.249977 0.969756,0.187297 1.329419,-0.153828 l 4.824617,-4.578068 3.198021,1.182847 c 0.517756,0.191022 1.097355,-0.0255 1.363048,-0.509206 l 4.051483,-7.383329 3.854984,1.407686 c 0.517614,0.189372 1.095923,-0.02792 1.360768,-0.511284 L 53.677753,16.9082 c -0.0018,-1.048508 -0.721409,-1.49588 -1.625177,-1.380294 z"
       id="path5809"
       inkscape:connector-curvature="0"
       sodipodi:nodetypes="ccccccccccccccccccccccc" />
  </g>
</svg>
